public/icons/logo-whatsapp-mini.svg

<svg width="18" height="18" viewBox="0 0 18 18" fill="none" xmlns="http://www.w3.org/2000/svg">
<path d="M1.27218 13.3796C0.487559 12.0265 0.0745995 10.4875 0.0756837 8.92058C0.0792589 1.05566 9.62446 -2.98812 15.3895 2.58759L15.3782 2.617C16.2105 3.43968 16.8712 4.42157 17.3214 5.50498C17.7717 6.5884 18.0024 7.7515 18 8.92596C18 15.7126 10.6791 19.967 4.74967 16.7633L0 18L1.27218 13.3796ZM5.24305 15.2788C10.2138 18.201 16.499 14.6253 16.5049 8.90018C16.507 7.9239 16.3149 6.95708 15.9402 6.05669C15.5654 5.15631 15.0155 4.34057 14.3229 3.6575C13.6307 2.96259 12.8093 2.41206 11.9055 2.03746C11.0017 1.66285 10.0333 1.47155 9.056 1.4745C7.7345 1.46308 6.43423 1.80942 5.29116 2.47731C4.1481 3.14521 3.20422 4.11012 2.55824 5.27114C1.91227 6.43215 1.58792 7.74661 1.61912 9.07708C1.65033 10.4075 2.03595 11.7051 2.73563 12.8341L2.91438 13.1155L2.16062 15.85L4.9737 15.1185L5.24305 15.2788ZM10.4396 12.8575C8.54355 12.2065 7.50614 11.7372 5.55944 9.1894C4.56851 7.79368 4.27654 6.48136 5.43431 5.20924C5.56507 5.09011 5.72298 5.00526 5.89405 4.96225C6.06513 4.91923 6.24409 4.91937 6.41511 4.96261C6.54799 4.96261 6.72497 4.90921 6.89718 5.32805C7.06938 5.74689 7.50496 6.80296 7.55918 6.91037C7.5931 6.96649 7.6125 7.03029 7.61563 7.09591C7.61875 7.16153 7.60549 7.2269 7.57706 7.28603C7.17723 8.0433 6.73748 8.09491 6.94722 8.45794C7.26986 9.00908 7.67142 9.5093 8.13896 9.94248C8.64751 10.396 9.23092 10.7565 9.86281 11.0076C10.0755 11.1042 10.2007 11.094 10.3264 10.9542C10.4521 10.8143 10.8627 10.3319 11.0039 10.1201C11.2071 9.81524 11.3721 9.91966 12.9494 10.7057L12.956 10.6517C13.1717 10.749 13.3135 10.8023 13.3653 10.8995C13.4237 11.245 13.3787 11.6001 13.236 11.9196C13.0778 12.1809 12.8676 12.4063 12.6188 12.5819C12.3699 12.7574 12.0877 12.8792 11.7898 12.9397C11.6192 12.9651 11.4469 12.9783 11.2744 12.9793C10.9917 12.982 10.7103 12.9405 10.4402 12.8563L10.4396 12.8575Z" fill="white"/>
</svg>

<svg xmlns="http://www.w3.org/2000/svg" width="18" height="18" fill="none" xmlns:v="https://vecta.io/nano"><path d="M1.272 13.38A8.88 8.88 0 0 1 .076 8.921C.079 1.056 9.624-2.988 15.39 2.588l-.011.029a8.82 8.82 0 0 1 1.943 2.888c.45 1.083.681 2.247.679 3.421 0 6.787-7.321 11.041-13.25 7.837L0 18l1.272-4.62zm3.971 1.899c4.971 2.922 11.256-.654 11.262-6.379a7.36 7.36 0 0 0-.565-2.843 7.32 7.32 0 0 0-1.617-2.399c-.692-.695-1.514-1.245-2.417-1.62s-1.872-.566-2.85-.563c-1.321-.011-2.622.335-3.765 1.003S3.204 4.11 2.558 5.271a7.47 7.47 0 0 0-.939 3.806c.031 1.33.417 2.628 1.117 3.757l.179.281-.754 2.734 2.813-.732.269.16zm5.197-2.421c-1.896-.651-2.933-1.12-4.88-3.668-.991-1.396-1.283-2.708-.125-3.98a1.07 1.07 0 0 1 .46-.247c.171-.043.35-.043.521 0 .133 0 .31-.053.482.365l.662 1.582c.034.056.053.12.056.186s-.01.131-.039.19c-.4.757-.84.809-.63 1.172a6.5 6.5 0 0 0 1.192 1.485 5.82 5.82 0 0 0 1.724 1.065c.213.097.338.086.464-.053s.536-.622.678-.834c.203-.305.368-.2 1.946.586l.007-.054c.216.097.357.151.409.248.058.345.013.701-.129 1.02-.158.261-.368.487-.617.662s-.531.297-.829.358c-.171.025-.343.039-.515.04-.283.003-.564-.039-.834-.123v.001z" fill="#fff"/></svg>
